Papirus/32x32/apps/mx-tweak.svg

<svg width="32" height="32" version="1.1" xmlns="http://www.w3.org/2000/svg">
 <g transform="matrix(.4997111 0 0 .5 .0011556 0)">
  <rect transform="matrix(0,-1,-1,0,0,0)" x="-60" y="-60.032375" width="55" height="56.032375" rx="2.7499998" ry="2.8016188" style="opacity:.2"/>
  <rect transform="matrix(0,-1,-1,0,0,0)" x="-59" y="-60.032375" width="55" height="56.032375" rx="2.75" ry="2.8016188" style="fill:#6b9fff"/>
 </g>
 <path d="m29.999999 28.599488c0 0.775584-0.693473 1.400361-1.555311 1.400361h-24.889372c-0.8618416 0-1.5553157-0.624776-1.5553157-1.400361v-5.599488h27.997812v5.599488z" style="fill:#1d2324;opacity:.5"/>
 <rect transform="matrix(0,-1,-1,0,0,0)" x="-28.5" y="-27" width="3.0000002" height="3" rx=".37500003" ry=".375" style="fill:#ffffff;opacity:.2"/>
 <rect transform="matrix(0,-1,-1,0,0,0)" x="-28" y="-27" width="3" height="3" rx=".375" ry=".375" style="fill:#ffffff"/>
 <rect transform="matrix(0,-1,-1,0,0,0)" x="-28.5" y="-23" width="3.0000002" height="3" rx=".37500003" ry=".375" style="fill:#ffffff;opacity:.2"/>
 <rect transform="matrix(0,-1,-1,0,0,0)" x="-28" y="-23" width="3.0000002" height="3" rx=".37500003" ry=".375" style="fill:#ffffff"/>
 <rect transform="matrix(0,-1,-1,0,0,0)" x="-28.5" y="-19" width="3.0000002" height="3" rx=".37500003" ry=".375" style="fill:#ffffff;opacity:.2"/>
 <rect transform="matrix(0,-1,-1,0,0,0)" x="-28" y="-19" width="3" height="3" rx=".375" ry=".375" style="fill:#ffffff"/>
 <path d="m3.4003606 2.0000001c-0.7755835 0-1.4003605 0.681089-1.4003605 1.527539v24.444919c0 0.846452 0.624777 1.527543 1.4003605 1.527543h5.599489v-27.497853h-5.599489z" style="fill:#29353b"/>
 <rect x="4" y="5.5" width="3" height="3" rx=".375" ry=".375" style="fill:#ffffff;opacity:.2"/>
 <rect x="4" y="5" width="3" height="3" rx=".375" ry=".375" style="fill:#ffffff"/>
 <rect x="4" y="9.5" width="3" height="3" rx=".375" ry=".375" style="fill:#ffffff;opacity:.2"/>
 <rect x="4" y="9" width="3" height="3" rx=".375" ry=".375" style="fill:#ffffff"/>
 <rect x="4" y="13.5" width="3" height="3" rx=".375" ry=".375" style="fill:#ffffff;opacity:.2"/>
 <rect x="4" y="13" width="3" height="3" rx=".375" ry=".375" style="fill:#ffffff"/>
 <rect x="4" y="25.5" width="3" height="3.0000002" rx=".375" ry=".37500003" style="fill:#ffffff;opacity:.2"/>
 <rect x="4" y="25" width="3" height="3" rx=".375" ry=".375" style="fill:#ffffff"/>
 <path d="m13.470796 6.9998104c-1.961061-0.02773-1.961061 3.0023416 0 2.97461 1.909924 0 3.771324 0.8349356 5.011719 2.2871096 0.906277 1.061009 1.430052 2.37312 1.533203 3.738281h-3.015625l4.5 6 4.5-6h-3.089844c-0.107798-2.051039-0.865677-4.032432-2.222656-5.621095-1.790263-2.0959216-4.460206-3.3789056-7.216797-3.3789056z" style="opacity:.2"/>
 <path d="m13.470796 5.9998106c-1.961061-0.02773-1.961061 3.002342 0 2.97461 1.909924 0 3.771324 0.834936 5.011719 2.2871094 0.906277 1.061009 1.430052 2.37312 1.533203 3.738281h-3.015625l4.5 6 4.5-6h-3.089844c-0.107798-2.051039-0.865677-4.032432-2.222656-5.6210944-1.790263-2.095922-4.460206-3.378906-7.216797-3.378906z" style="fill:#ffffff"/>
</svg>

<svg xmlns="http://www.w3.org/2000/svg" width="32" height="32" version="1.1">
 <rect style="opacity:0.2" width="28" height="28" x="2" y="3" rx="1.4" ry="1.4"/>
 <rect style="fill:#6b9fff" width="23" height="23" x="7" y="2" rx="1.4" ry="1.4"/>
 <path style="fill:#446191" d="M 8,23 V 29 L 9,30 H 28.6 C 29.375,30 30,29.375 30,28.6 V 23 Z"/>
 <path style="fill:#29353b" d="M 3.4004,2 C 2.6248,2 2,2.6248 2,3.4004 V 28.6 C 2,29.375 2.6248,30 3.4004,30 H 9 V 2 Z"/>
 <rect style="opacity:0.2" width="3" height="3" x="25" y="26" rx=".375" ry=".375"/>
 <rect style="fill:#ffffff" width="3" height="3" x="25" y="25" rx=".375" ry=".375"/>
 <rect style="opacity:0.2" width="3" height="3" x="20" y="26" rx=".375" ry=".375"/>
 <rect style="fill:#ffffff" width="3" height="3" x="20" y="25" rx=".375" ry=".375"/>
 <rect style="opacity:0.2" width="3" height="3" x="15" y="26" rx=".375" ry=".375"/>
 <rect style="fill:#ffffff" width="3" height="3" x="15" y="25" rx=".375" ry=".375"/>
 <rect style="opacity:0.2" width="3" height="3" x="4" y="6" rx=".375" ry=".375"/>
 <rect style="fill:#ffffff" width="3" height="3" x="4" y="5" rx=".375" ry=".375"/>
 <rect style="opacity:0.2" width="3" height="3" x="4" y="11" rx=".375" ry=".375"/>
 <rect style="fill:#ffffff" width="3" height="3" x="4" y="10" rx=".375" ry=".375"/>
 <rect style="opacity:0.2" width="3" height="3" x="4" y="16" rx=".375" ry=".375"/>
 <rect style="fill:#ffffff" width="3" height="3" x="4" y="15" rx=".375" ry=".375"/>
 <rect style="opacity:0.2" width="3" height="3" x="4" y="26" rx=".375" ry=".375"/>
 <rect style="fill:#ffffff" width="3" height="3" x="4" y="25" rx=".375" ry=".375"/>
 <path style="opacity:0.2" d="M 13.471,7 C 11.51,6.9721 11.51,10.002 13.471,9.9744 15.381,9.9744 17.242,10.809 18.483,12.262 19.389,13.323 19.913,14.635 20.016,16 H 17 L 21.5,22 26,16 H 22.91 C 22.802,13.949 22.045,11.967 20.688,10.379 18.897,8.2828 16.227,7 13.471,7 Z"/>
 <path style="fill:#ffffff" d="M 13.471,6 C 11.51,5.9721 11.51,9.0022 13.471,8.9744 15.381,8.9744 17.242,9.8094 18.483,11.262 19.389,12.323 19.913,13.635 20.016,15 H 17 L 21.5,21 26,15 H 22.91 C 22.802,12.949 22.045,10.967 20.688,9.3787 18.897,7.2828 16.227,6 13.471,6 Z"/>
 <path style="fill:#ffffff;opacity:0.2" d="M 3.4004 2 C 2.6248 2 2 2.6248 2 3.4004 L 2 4.4004 C 2 3.6248 2.6248 3 3.4004 3 L 28.6 3 C 29.375 3 30 3.6248 30 4.4004 L 30 3.4004 C 30 2.6248 29.375 2 28.6 2 L 3.4004 2 z"/>
</svg>
